X: 1
T: A oanzigs Hendl
R: zwiefacher
M: 23/44
L: 1/8
K: Ab
|: [C2A2] \
| "Eb7"([B,2G2][D2B2]) | "Ab"([C2A2] [Ec])z [C2A2] \
| "Eb7"([B,2G2][D2B2]) | "Ab"[c2E2] z2 [A2C2] \
| "Eb7"([B,2G2][D2B2]) | "Ab"([C2A2] [Ec])z [e2A2] \
| "Eb7"([G2d2][D2G2]) | "Ab"[A2C2] z2 :|
|: [e2A2] \
| "Eb7"([G2d2][D2B2]) | "Ab"([E2c2] [C2A2])z [e2A2] \
| "Eb7"([G2d2][D2B2]) | "Ab"[E2c2] z2 [e2A2] \
| "Eb7"([G2d2][D2B2]) | "Ab"([E2c2] [C2A2])z [E2c2] \
| "Eb7"([D2B2][B,2G2]) | "Ab"[A2C2] z2 :|
%%sep 2 1 500
